X: 29489
T: Nightly Frolics Of Dominic Reardon, The
R: slip jig
M: 9/8
K: Dmajor
|:EFA B2Az Bc|BAF EFA B2A|
EFA B2Az Bc|1 BAF cAF BAE:|2 BAF fec ecA||
|:B3 BAB cBA|E3 cAF BAE|
B3 BAB cBA|1 fec ecA BcA:|2 fec ecA Bce||
|:aef aef aef|fec BAB cef|
aef aef aef|1 fec BAB cAE:|2 fec BAB cAF||

